X: 1
T: Mary Erskine
T: 8x32R 3C (Goldring, Graded 2)
P: Shuter's Hornpipe
C: from John Chambers, mods. by T. Traub 6-30-2011
R: reel
M: C
L: 1/8
K: G
|: D2 | "G"G2G2 GABc | "G"dcBA GABG | "Am"A2A2 A2ed | "C"cBAG "D7"FAFD |"G"G2 G2 GABc |
"D"dcBA "Em"G2 g2 | "D"fafd "A7"ege^c | "D"d2 f2 d2 :||: D2| "D"A2 A2 A2Bc | "G"dBAG "D7"FAFD |
"G"d2 d2 d2ef | "G"gedc BdBG |"C"e2c2 c2ge | "G"d2B2 B2g2 | "C"ecec "D7"BAGF | "G"G2B2 G2 :|